packages/components/bolt-icons/src/svgs/pega/pega-building-complex.svg

<svg viewBox="0 0 32 32" xmlns="http://www.w3.org/2000/svg"><path fill="#fff" d="m31 28.89h-1.38v-8.89a1 1 0 0 0 -.38-.78l-3.06-2.43v-11.17a1 1 0 0 0 -1-1h-2.58v-2.51a1 1 0 0 0 -1-1h-9.32a1 1 0 0 0 -1 1v2.51h-2.7a1 1 0 0 0 -1 1v23.27h-2.65v-6.48a3.77 3.77 0 0 0 2.32-3.61 3.6 3.6 0 0 0 -3.32-3.8 3.6 3.6 0 0 0 -3.32 3.8 3.77 3.77 0 0 0 2.32 3.61v6.48h-1.93a1 1 0 0 0 0 2h30a1 1 0 0 0 0-2zm-27.07-11.89c.71 0 1.32.83 1.32 1.81s-.61 1.81-1.32 1.81-1.32-.83-1.32-1.81.61-1.81 1.32-1.81zm23.69 11.9h-1.27v-6.17a1 1 0 0 0 -1-1h-6.26a1 1 0 0 0 -1 1v6.16h-1.39v-8.43l5.47-4.34 5.45 4.34zm-3.27 0h-4.26v-5.17h4.26zm-.17-22.28v8.55l-1.39-1.1a.72.72 0 0 0 -.19-.07v-7.38zm-10.9-3.51h7.32v11.7l-5.52 4.39a1 1 0 0 0 -.38.78v8.91h-1.42zm-3.7 3.51h1.7v22.27h-1.7z"/><path fill="#fff" d="m15.77 14.82h2.86a1 1 0 1 0 0-2h-2.86a1 1 0 0 0 0 2z"/><path fill="#fff" d="m15.77 11.23h2.86a1 1 0 0 0 0-2h-2.86a1 1 0 0 0 0 2z"/><path fill="#fff" d="m15.77 7.64h2.86a1 1 0 0 0 0-2h-2.86a1 1 0 0 0 0 2z"/></svg>

<svg id="icon-building-complex" data-name="building-complex" xmlns="http://www.w3.org/2000/svg" viewBox="0 0 32 32"><path d="M31,28.89H29.62V20a1,1,0,0,0-.38-.78l-3.06-2.43V5.62a1,1,0,0,0-1-1H22.6V2.11a1,1,0,0,0-1-1H12.28a1,1,0,0,0-1,1V4.62H8.58a1,1,0,0,0-1,1V28.89H4.93V22.41A3.77,3.77,0,0,0,7.25,18.8,3.6,3.6,0,0,0,3.93,15,3.6,3.6,0,0,0,.61,18.8a3.77,3.77,0,0,0,2.32,3.61v6.48H1a1,1,0,0,0,0,2H31a1,1,0,0,0,0-2ZM3.93,17c.71,0,1.32.83,1.32,1.81s-.61,1.81-1.32,1.81-1.32-.83-1.32-1.81S3.22,17,3.93,17Zm23.69,11.9H26.35V22.73a1,1,0,0,0-1-1H19.09a1,1,0,0,0-1,1v6.16H16.7V20.46l5.47-4.34,5.45,4.34Zm-3.27,0H20.09V23.73h4.26ZM24.18,6.62v8.55l-1.39-1.1A.72.72,0,0,0,22.6,14V6.62ZM13.28,3.11H20.6v11.7L15.08,19.2a1,1,0,0,0-.38.78v8.91H13.28ZM9.58,6.62h1.7V28.89H9.58Z"/><path d="M15.77,14.82h2.86a1,1,0,1,0,0-2H15.77a1,1,0,0,0,0,2Z"/><path d="M15.77,11.23h2.86a1,1,0,0,0,0-2H15.77a1,1,0,0,0,0,2Z"/><path d="M15.77,7.64h2.86a1,1,0,0,0,0-2H15.77a1,1,0,0,0,0,2Z"/></svg>
